X:137
T:Waistcoat Pocket Hornpipe,The TS.137
M:C|
L:1/8
Q:1/2=90
S:Thomas Sands’ MS,1810,Lincolnshire
R:.hornpipe
O:England;Lincolnshire
Z:vmp.Ruairidh Greig, 2011
K:Bb
“s-q in ms”BA|BFDE FAce|dfdB A2GF|EGcB AcdB|Cced dcBA|
BFDE FAce|dfdB A2GF|”tr”E3g fdcB|F2A2B2:|
|:”q in ms”g2|fgab fdcB|egec {B}A2GF|EGcB AcdB|Ccedc2 (fg/a/)|
bfdB Fafd|Egec {B}A2 GF|”tr”E3g fdcB|FBAcB2:|]

